fs/door_28_regular.svg

<svg viewBox="0 0 28 28" fill="none" xmlns="http://www.w3.org/2000/svg" height="1em" width="1em">
  <path d="M9.5 15C10.3284 15 11 14.3284 11 13.5C11 12.6716 10.3284 12 9.5 12C8.67157 12 8 12.6716 8 13.5C8 14.3284 8.67157 15 9.5 15ZM5 5C5 3.34315 6.34315 2 8 2H20C21.6569 2 23 3.34315 23 5V23C23 24.6569 21.6569 26 20 26H8C6.34315 26 5 24.6569 5 23V5ZM8 3.5C7.17157 3.5 6.5 4.17157 6.5 5V23C6.5 23.8284 7.17157 24.5 8 24.5H20C20.8284 24.5 21.5 23.8284 21.5 23V5C21.5 4.17157 20.8284 3.5 20 3.5H8Z" fill="#212121"/>
</svg>

<svg viewBox="0 0 28 28" fill="none" xmlns="http://www.w3.org/2000/svg" height="1em" width="1em">
  <path d="M9.5 15a1.5 1.5 0 1 0 0-3 1.5 1.5 0 0 0 0 3ZM5 5a3 3 0 0 1 3-3h12a3 3 0 0 1 3 3v18a3 3 0 0 1-3 3H8a3 3 0 0 1-3-3V5Zm3-1.5A1.5 1.5 0 0 0 6.5 5v18A1.5 1.5 0 0 0 8 24.5h12a1.5 1.5 0 0 0 1.5-1.5V5A1.5 1.5 0 0 0 20 3.5H8Z" fill="#212121"/>
</svg>
